X:1
T:Puerto Rico, 87.87 D
T:Puerto Rico, 87.87 D
T:Daniel Brink Towner, 1899
T:Public Domain Courtesy of the Cyber Hymnal™
C:Daniel Brink Towner, 1899
Z:Public Domain
Z:Courtesy of the Cyber Hymnal™
%%score ( 1 2 ) ( 3 4 )
L:1/8
Q:1/4=107
M:4/4
K:G
V:1 treble 
V:2 treble 
V:3 bass 
V:4 bass 
V:1
 [DG]2 [DF]2 [DA]2 [DG]2 | [DB]2 [DA]2 [Dc]2 [DB]2 | [Gd]3 [Ge] [Gd]2 [GB]2 | [GB]2 [FA]2 [FA]4 | %4
!<(! [DG]2 [DF]2 [DA]2 [DG]2 | [DB]2 [DA]2!<)! [Dc]2 [DB]2 |!ff! [Gd]3 [Ge] [Gd]2 [GB]2 | %7
 [FA]3 G !fermata!G2 (3(G[FA])[=FB] | [Ec]2 [Gc]4 (3([Ge][Fd])[Ec] | [DB]2 [Gd]4 [GB]>[GB] | %10
 [FA]2 [Fd]2 [Ge]3 [G^c] | !fermata!d6 (3(!fermata!DE)F x | G2 [FA]2 [GB]2 [Gd]2 | %13
 (c3 d) !fermata![Ge]2 (3([Ec][Fd])[Ge] | [Gd]2 [GB]2 [FA]3 G | G6 z2 |] %16
V:2
 x8 | x8 | x8 | x8 | x8 | x8 | x8 | x3 G G2 G x | x8 | x8 | x8 | (F2 G2 A2) DEF | G2 x6 | G4 x4 | %14
 x7 G | G6 x2 |] %16
V:3
 [G,B,]2 [A,C]2 [F,C]2 [G,B,]2 | [D,G,]2 [C,F,]2 [A,,F,]2 [A,,G,]2 | [G,B,]3 [G,C] [G,B,]2 [G,D]2 | %3
 [D,D]2 [D,C]2 [D,D]4 | [G,B,]2 [A,C]2 [F,C]2 [G,B,]2 | [D,G,]2 [C,F,]2 [A,,F,]2 [G,,G,]2 | %6
 [G,B,]3 [G,C] [G,B,]2 [G,D]2 | [D,C]3 [G,B,] !fermata![G,B,]2 (3(B,C)[G,D] | %8
 [C,C]2 [C,E]4 (3:2:2[C,C]2 [C,C] | [G,D]2 [G,B,]4 [G,D]>[G,D] | [A,D]2 A,2 A,3 A, | %11
 (A,2 B,2 D2) D,E,F, | G,2 [D,D]2 [G,D]2 B,2 | ([E,C]3 [D,B,]) [C,C]2 (3:2:2[C,C]2 [C,C] | %14
 [D,B,]2 [D,D]2 [D,C]3 [G,,G,B,] | [G,,G,B,]6 z2 |] %16
V:4
 x8 | x8 | x8 | x8 | x8 | x8 | x8 | x6 G,2 | x8 | x8 | x2 A,2 A,3 A, | D,6 (3(D,E,)F, x | %12
 G,2 x2 (G,=F,) x2 | x8 | x8 | x8 |] %16

